X:1
T:Scottish : La noce d'tienne
Z:Roger Ngaret (94-95)
R:scottish
C:M. Pacher (harm. P. Roguez)
S:
A:
M:4/4
L:1/16
K:C
T:1re voix
Q:1/4=160
"C"C4 E2G2 c4 G2E2 | "G"F4 A4 "C"G2F2 E2D2 | 
C4 E2G2 c4 G2E2 | "G"F4 A4 D8 ::
"C"e2c2 G2c2 e2c2 G2E2 | "G"F4 A2B2 "C"c4 G4 | 
e2c2 G2c2 e2c2 G2E2 | "G"F4 A4 D8 :|
T:2ime voix
"C"E8 G8 | "F"c8 "G"d8 | "C"E8 G8 | "F"A4 c4 "G"B8 ::
"C"c8 G8 | "F"A4 F2D2 "C"E4 E4 | c8 G8 | "F"A8 "G"B8 :|
T:3ime voix
"C"G4 E4 C4 E4 | "F"A4 F4 "G"B8 | "C"G4 E4 C4 E4 | "F"C4 F4 "G"G8 ::
"C"C4 E4 C4 E4 | "F"C4 z2 F2 "C"G4 G4 | C4 E4 C4 E4 | "F"F4 F4 "G"G8 :|
T:4ime voix
z4 [c4e4g4] z4 [c4e4g4] | z4 [A2c2f2] [A2c2f2] z4 [B4d4f4] | 
z4 [c4e4g4] z4 [c4e4g4] | z4 [A2c2f2] [A2c2f2] z4 [B4d4f4] ::
z4 [C2E2G2] [C2E2G2] z4 [C4E4G4] | z4 [C4F4A4] z4 [C2E2G2]
[C2E2G2] | z4 [C4E4G4] z4 [C4E4G4] | 
z4 [C2F2A2] [C2F2A2] z4 [B,4D4F4] :|
%%newpage
%%textrmfont     Courier 16.0
%%textitfont     Courier-Oblique 16.0
%%textbffont     Courier-Bold 16.0
%%rm
%%rm
%%rm  la noce d'tienne, j'ai dans comme une mitaine
%%rm Et j'ai promis,  Andr, qui tait mon cavalier,
%%rm Une scottish une gigouillette, une danse aux quatre coins
%%rm Un avant-deux, un pas d't poitevin.
%%rm
%%it 1,2,3 les femmes taient en place aux cuisines
%%it 1,2,3 les hommes avaient un bouquet  la main
%%it 1,2,3 les enfants taquinaient les cousines
%%it 1,2,3 elles taient belles depuis le matin.
%%rm  
%%rm Tante Louisette, tante Jeanne, tante Paulette
%%rm                                          et tante Monette
%%rm taient postes, aux entres de la maison,
%%rm Pour acceuillir, les Gazeau les Moreau les Bobin
%%rm Et toutes les familles, qui n'taient pas du canton.
%%rm
%%rm lise s'est, trompe dans, la couleur des robes  fleurs
%%rm Elle a cri, cri "Vive la marie",
%%rm En voyant entre deux paires de jambes  sa hauteur
%%rm Apparaitre, la soutane, de monsieur, le cur.
%%rm
%%rm Dans le poirier, sur la haie du pr brl du pr  bl
%%rm Chapeau gants blancs, et voile de la marie,
%%rm Dansent au vent, tienne essaye de les attraper
%%rm Sous l'oeil des invits, beaux comme un dessin de Bugeant.
%%rm
%%rm Ren  l'accordon Jean-Baptiste au violon et au piston,
%%rm Le vieux Paul, le pre d'Mathilde et Lon,
%%rm Ouvrent le bal, et font danser les jeunesses
%%rm Et les anciens font des prouesses, pour pater les garons.
%%rm
%%rm  la noce d'tienne, j'ai dans comme une mitaine
%%rm Et j'ai promis,  Andr, qui tait mon cavalier,
%%rm Une scottish une gigouillette, une danse aux quatre coins
%%rm Un avant-deux, un pas d't poitevin.
